X: 31262
T: Paddy From Portlaw
R: jig
M: 6/8
K: Dmajor
B|:AFD D3|AFD DdB|ABd DFA|BGE E3|
AFD F3|DFA Ade|fdB ABG|1 FGE D2B:|2 FGE D2f||
|:afd dB/c/d|afd d2f|afd Adf|g3 efg|
fga g3|afd ede|fdB ABG|1 FGE D2f:|2 FGE D2||

